source/images/icons/btn-apple-disabled.svg

<?xml version="1.0" encoding="UTF-8"?>
<svg width="135px" height="40px" viewBox="0 0 135 40" version="1.1" xmlns="http://www.w3.org/2000/svg" xmlns:xlink="http://www.w3.org/1999/xlink">
    <!-- Generator: Sketch 41.2 (35397) - http://www.bohemiancoding.com/sketch -->
    <title>btn-apple</title>
    <desc>Created with Sketch.</desc>
    <defs></defs>
    <g id="Landing-page" stroke="none" stroke-width="1" fill="none" fill-rule="evenodd" opacity="0.400000006">
        <g id="Desktop-HD" transform="translate(-308.000000, -614.000000)">
            <g id="btn-apple" transform="translate(308.000000, 614.000000)">
                <path d="M130.197,40 L4.729,40 C2.122,40 0,37.872 0,35.267 L0,4.726 C0,2.12 2.122,0 4.729,0 L130.197,0 C132.803,0 135,2.12 135,4.726 L135,35.267 C135,37.872 132.803,40 130.197,40 L130.197,40 Z" id="Shape" fill="#A6A6A6"></path>
                <path d="M130.198,39.098 L4.729,39.098 C2.61,39.098 0.89,37.384 0.89,35.268 L0.89,4.725 C0.89,2.61 2.61,0.89 4.729,0.89 L130.197,0.89 C132.318,0.89 134.031,2.61 134.031,4.725 L134.032,35.268 C134.032,37.384 132.318,39.098 130.198,39.098 Z" id="Shape" fill="#000000"></path>
                <path d="M30.128,19.784 C30.099,16.561 32.767,14.993 32.889,14.92 C31.378,12.717 29.036,12.416 28.213,12.392 C26.246,12.185 24.338,13.569 23.336,13.569 C22.314,13.569 20.771,12.412 19.108,12.446 C16.968,12.479 14.966,13.718 13.868,15.642 C11.602,19.565 13.292,25.33 15.463,28.501 C16.549,30.054 17.818,31.788 19.479,31.727 C21.104,31.66 21.711,30.691 23.672,30.691 C25.615,30.691 26.185,31.727 27.879,31.688 C29.623,31.66 30.721,30.128 31.769,28.561 C33.024,26.781 33.528,25.028 33.548,24.938 C33.507,24.924 30.161,23.647 30.128,19.784 Z" id="Shape" fill="#FFFFFF"></path>
                <path d="M26.928,10.306 C27.802,9.213 28.4,7.726 28.234,6.217 C26.969,6.273 25.387,7.092 24.476,8.161 C23.67,9.103 22.95,10.647 23.136,12.099 C24.557,12.205 26.016,11.382 26.928,10.306 Z" id="Shape" fill="#FFFFFF"></path>
                <path d="M53.645,31.504 L51.374,31.504 L50.13,27.595 L45.806,27.595 L44.621,31.504 L42.41,31.504 L46.694,18.196 L49.34,18.196 L53.645,31.504 Z M49.755,25.955 L48.63,22.48 C48.511,22.125 48.288,21.289 47.959,19.973 L47.919,19.973 C47.788,20.539 47.577,21.375 47.287,22.48 L46.182,25.955 L49.755,25.955 L49.755,25.955 Z" id="Shape" fill="#FFFFFF"></path>
                <path d="M64.662,26.588 C64.662,28.22 64.221,29.51 63.339,30.457 C62.549,31.3 61.568,31.721 60.397,31.721 C59.133,31.721 58.225,31.267 57.672,30.359 L57.632,30.359 L57.632,35.414 L55.5,35.414 L55.5,25.067 C55.5,24.041 55.473,22.988 55.421,21.908 L57.296,21.908 L57.415,23.429 L57.455,23.429 C58.166,22.283 59.245,21.711 60.693,21.711 C61.825,21.711 62.77,22.158 63.526,23.053 C64.284,23.949 64.662,25.127 64.662,26.588 Z M62.49,26.666 C62.49,25.732 62.28,24.962 61.858,24.356 C61.397,23.724 60.778,23.408 60.002,23.408 C59.476,23.408 58.998,23.584 58.571,23.931 C58.143,24.281 57.863,24.738 57.732,25.304 C57.666,25.568 57.633,25.784 57.633,25.954 L57.633,27.554 C57.633,28.252 57.847,28.841 58.275,29.322 C58.703,29.803 59.259,30.043 59.943,30.043 C60.746,30.043 61.371,29.733 61.818,29.115 C62.266,28.496 62.49,27.68 62.49,26.666 Z" id="Shape" fill="#FFFFFF"></path>
                <path d="M75.699,26.588 C75.699,28.22 75.258,29.51 74.375,30.457 C73.586,31.3 72.605,31.721 71.434,31.721 C70.17,31.721 69.262,31.267 68.71,30.359 L68.67,30.359 L68.67,35.414 L66.538,35.414 L66.538,25.067 C66.538,24.041 66.511,22.988 66.459,21.908 L68.334,21.908 L68.453,23.429 L68.493,23.429 C69.203,22.283 70.282,21.711 71.731,21.711 C72.862,21.711 73.807,22.158 74.565,23.053 C75.32,23.949 75.699,25.127 75.699,26.588 Z M73.527,26.666 C73.527,25.732 73.316,24.962 72.894,24.356 C72.433,23.724 71.816,23.408 71.039,23.408 C70.512,23.408 70.035,23.584 69.607,23.931 C69.179,24.281 68.9,24.738 68.769,25.304 C68.704,25.568 68.67,25.784 68.67,25.954 L68.67,27.554 C68.67,28.252 68.884,28.841 69.31,29.322 C69.738,29.802 70.294,30.043 70.98,30.043 C71.783,30.043 72.408,29.733 72.855,29.115 C73.303,28.496 73.527,27.68 73.527,26.666 Z" id="Shape" fill="#FFFFFF"></path>
                <path d="M88.039,27.772 C88.039,28.904 87.646,29.825 86.857,30.536 C85.99,31.313 84.783,31.701 83.232,31.701 C81.8,31.701 80.652,31.425 79.783,30.872 L80.277,29.095 C81.213,29.661 82.24,29.945 83.359,29.945 C84.162,29.945 84.787,29.763 85.236,29.401 C85.683,29.039 85.906,28.553 85.906,27.947 C85.906,27.407 85.722,26.952 85.353,26.583 C84.986,26.214 84.373,25.871 83.517,25.554 C81.187,24.685 80.023,23.412 80.023,21.738 C80.023,20.644 80.431,19.747 81.248,19.049 C82.062,18.35 83.148,18.001 84.506,18.001 C85.717,18.001 86.723,18.212 87.526,18.633 L86.993,20.371 C86.243,19.963 85.395,19.759 84.446,19.759 C83.696,19.759 83.11,19.944 82.69,20.312 C82.335,20.641 82.157,21.042 82.157,21.517 C82.157,22.043 82.36,22.478 82.768,22.82 C83.123,23.136 83.768,23.478 84.704,23.847 C85.849,24.308 86.69,24.847 87.231,25.465 C87.77,26.081 88.039,26.852 88.039,27.772 Z" id="Shape" fill="#FFFFFF"></path>
                <path d="M95.088,23.508 L92.738,23.508 L92.738,28.167 C92.738,29.352 93.152,29.944 93.982,29.944 C94.363,29.944 94.679,29.911 94.929,29.845 L94.988,31.464 C94.568,31.621 94.015,31.7 93.33,31.7 C92.488,31.7 91.83,31.443 91.355,30.93 C90.882,30.416 90.644,29.554 90.644,28.343 L90.644,23.506 L89.244,23.506 L89.244,21.906 L90.644,21.906 L90.644,20.149 L92.738,19.517 L92.738,21.906 L95.088,21.906 L95.088,23.508 Z" id="Shape" fill="#FFFFFF"></path>
                <path d="M105.691,26.627 C105.691,28.102 105.269,29.313 104.427,30.26 C103.544,31.235 102.372,31.721 100.911,31.721 C99.503,31.721 98.382,31.254 97.546,30.32 C96.71,29.386 96.292,28.207 96.292,26.786 C96.292,25.299 96.722,24.081 97.585,23.134 C98.446,22.186 99.608,21.712 101.069,21.712 C102.477,21.712 103.61,22.179 104.465,23.114 C105.283,24.021 105.691,25.192 105.691,26.627 Z M103.479,26.696 C103.479,25.811 103.29,25.052 102.907,24.419 C102.46,23.653 101.821,23.271 100.993,23.271 C100.136,23.271 99.485,23.654 99.038,24.419 C98.655,25.053 98.466,25.824 98.466,26.736 C98.466,27.621 98.655,28.38 99.038,29.012 C99.499,29.778 100.143,30.16 100.974,30.16 C101.788,30.16 102.427,29.77 102.888,28.992 C103.281,28.347 103.479,27.58 103.479,26.696 Z" id="Shape" fill="#FFFFFF"></path>
                <path d="M112.621,23.783 C112.41,23.744 112.185,23.724 111.949,23.724 C111.199,23.724 110.619,24.007 110.211,24.574 C109.856,25.074 109.678,25.706 109.678,26.469 L109.678,31.504 L107.547,31.504 L107.567,24.93 C107.567,23.824 107.54,22.817 107.487,21.909 L109.344,21.909 L109.422,23.745 L109.481,23.745 C109.706,23.114 110.061,22.606 110.547,22.225 C111.022,21.882 111.535,21.711 112.088,21.711 C112.285,21.711 112.463,21.725 112.621,21.75 L112.621,23.783 Z" id="Shape" fill="#FFFFFF"></path>
                <path d="M122.156,26.252 C122.156,26.634 122.131,26.956 122.078,27.219 L115.682,27.219 C115.707,28.167 116.016,28.892 116.61,29.392 C117.149,29.839 117.846,30.063 118.702,30.063 C119.649,30.063 120.513,29.912 121.29,29.609 L121.624,31.089 C120.716,31.485 119.644,31.682 118.407,31.682 C116.919,31.682 115.751,31.244 114.901,30.369 C114.053,29.494 113.628,28.319 113.628,26.845 C113.628,25.398 114.023,24.193 114.814,23.232 C115.642,22.206 116.761,21.693 118.169,21.693 C119.552,21.693 120.599,22.206 121.31,23.232 C121.873,24.047 122.156,25.055 122.156,26.252 Z M120.123,25.699 C120.137,25.067 119.998,24.521 119.709,24.06 C119.34,23.467 118.773,23.171 118.01,23.171 C117.313,23.171 116.746,23.46 116.313,24.04 C115.958,24.501 115.747,25.054 115.682,25.698 L120.123,25.698 L120.123,25.699 Z" id="Shape" fill="#FFFFFF"></path>
                <path d="M43.2636719,11.3520508 C43.2856445,12.1518555 43.84375,13.1230469 45.4785156,13.1230469 C46.7924805,13.1230469 47.7636719,12.4770508 47.7636719,11.2993164 C47.7636719,10.3017578 47.0957031,9.87548828 46.1860352,9.64697266 L45.184082,9.39208984 C44.6171875,9.25585938 44.3447266,8.96142578 44.3447266,8.55712891 C44.3447266,7.96386719 44.8413086,7.62548828 45.5532227,7.62548828 C46.3530273,7.62548828 46.7661133,8.06054688 46.8144531,8.59667969 L47.6889648,8.59667969 C47.6669922,7.45849609 46.6738281,6.86523438 45.5664062,6.86523438 C44.4370117,6.86523438 43.4350586,7.48486328 43.4350586,8.62304688 C43.4350586,9.58105469 44.1293945,10.0380859 44.8764648,10.2226562 L45.887207,10.4775391 C46.5419922,10.6401367 46.8496094,10.8994141 46.8496094,11.3740234 C46.8496094,11.9760742 46.3574219,12.3583984 45.5576172,12.3583984 C44.6787109,12.3583984 44.2084961,11.8969727 44.1557617,11.3520508 L43.2636719,11.3520508 Z M50.6420898,8.2890625 C49.3193359,8.2890625 48.6030273,9.22949219 48.6030273,10.4819336 L48.6030273,10.8686523 C48.6030273,12.15625 49.3193359,13.0791016 50.6420898,13.0791016 C51.9604492,13.0791016 52.6679688,12.15625 52.6679688,10.8686523 L52.6679688,10.4775391 C52.6679688,9.22509766 51.9560547,8.2890625 50.6420898,8.2890625 Z M50.6376953,9.01855469 C51.3891602,9.01855469 51.7758789,9.61181641 51.7758789,10.4995117 L51.7758789,10.8554688 C51.7758789,11.734375 51.3935547,12.3408203 50.6376953,12.3408203 C49.8862305,12.3408203 49.4951172,11.7299805 49.4951172,10.8554688 L49.4951172,10.4995117 C49.4951172,9.61621094 49.8862305,9.01855469 50.6376953,9.01855469 Z M55.6166992,8.2890625 C54.2939453,8.2890625 53.5776367,9.22949219 53.5776367,10.4819336 L53.5776367,10.8686523 C53.5776367,12.15625 54.2939453,13.0791016 55.6166992,13.0791016 C56.9350586,13.0791016 57.6425781,12.15625 57.6425781,10.8686523 L57.6425781,10.4775391 C57.6425781,9.22509766 56.9306641,8.2890625 55.6166992,8.2890625 Z M55.6123047,9.01855469 C56.3637695,9.01855469 56.7504883,9.61181641 56.7504883,10.4995117 L56.7504883,10.8554688 C56.7504883,11.734375 56.3681641,12.3408203 55.6123047,12.3408203 C54.8608398,12.3408203 54.4697266,11.7299805 54.4697266,10.8554688 L54.4697266,10.4995117 C54.4697266,9.61621094 54.8608398,9.01855469 55.6123047,9.01855469 Z M58.7412109,13 L59.6245117,13 L59.6245117,10.2138672 C59.6245117,9.59423828 59.9628906,9.07568359 60.6923828,9.07568359 C61.3076172,9.07568359 61.7514648,9.43603516 61.7514648,10.1918945 L61.7514648,13 L62.6347656,13 L62.6347656,10.0249023 C62.6347656,8.89550781 61.9448242,8.29345703 60.9956055,8.29345703 C60.2353516,8.29345703 59.809082,8.69775391 59.6464844,9.00097656 L59.6157227,9.00097656 L59.6157227,8.36816406 L58.7412109,8.36816406 L58.7412109,13 Z M67.4951172,8.2890625 C66.1723633,8.2890625 65.4560547,9.22949219 65.4560547,10.4819336 L65.4560547,10.8686523 C65.4560547,12.15625 66.1723633,13.0791016 67.4951172,13.0791016 C68.8134766,13.0791016 69.5209961,12.15625 69.5209961,10.8686523 L69.5209961,10.4775391 C69.5209961,9.22509766 68.809082,8.2890625 67.4951172,8.2890625 Z M67.4907227,9.01855469 C68.2421875,9.01855469 68.6289062,9.61181641 68.6289062,10.4995117 L68.6289062,10.8554688 C68.6289062,11.734375 68.246582,12.3408203 67.4907227,12.3408203 C66.7392578,12.3408203 66.3481445,11.7299805 66.3481445,10.8554688 L66.3481445,10.4995117 C66.3481445,9.61621094 66.7392578,9.01855469 67.4907227,9.01855469 Z M70.6196289,13 L71.5029297,13 L71.5029297,10.2138672 C71.5029297,9.59423828 71.8413086,9.07568359 72.5708008,9.07568359 C73.1860352,9.07568359 73.6298828,9.43603516 73.6298828,10.1918945 L73.6298828,13 L74.5131836,13 L74.5131836,10.0249023 C74.5131836,8.89550781 73.8232422,8.29345703 72.8740234,8.29345703 C72.1137695,8.29345703 71.6875,8.69775391 71.5249023,9.00097656 L71.4941406,9.00097656 L71.4941406,8.36816406 L70.6196289,8.36816406 L70.6196289,13 Z M77.8354492,8.36816406 L77.1938477,8.36816406 L77.1938477,9.08886719 L77.8266602,9.08886719 L77.8266602,11.6992188 C77.8266602,12.6220703 78.1035156,13.0351562 79.2197266,13.0351562 C79.3999023,13.0351562 79.5756836,13.0175781 79.6503906,13.0043945 L79.6503906,12.3144531 C79.5888672,12.3188477 79.5185547,12.3232422 79.4394531,12.3232422 C78.8989258,12.3232422 78.7099609,12.1826172 78.7099609,11.6552734 L78.7099609,9.08886719 L79.6196289,9.08886719 L79.6196289,8.36816406 L78.7099609,8.36816406 L78.7099609,7.22558594 L77.8354492,7.22558594 L77.8354492,8.36816406 Z M80.6699219,13 L81.5576172,13 L81.5576172,10.2138672 C81.5576172,9.59423828 81.8916016,9.07568359 82.6254883,9.07568359 C83.2451172,9.07568359 83.6845703,9.43603516 83.6845703,10.1918945 L83.6845703,13 L84.5722656,13 L84.5722656,10.0249023 C84.5722656,8.89550781 83.8779297,8.29345703 82.9287109,8.29345703 C82.1728516,8.29345703 81.7509766,8.69775391 81.5883789,9.00097656 L81.5576172,9.00097656 L81.5576172,6.68505859 L80.6699219,6.68505859 L80.6699219,13 Z M87.5913086,13.0791016 C88.6899414,13.0791016 89.2963867,12.4506836 89.4501953,11.6948242 L88.5932617,11.6948242 C88.4614258,12.1079102 88.1186523,12.362793 87.6088867,12.362793 C86.9101562,12.362793 86.4794922,11.809082 86.4794922,10.9873047 L86.4794922,10.890625 L89.5073242,10.890625 L89.5073242,10.4511719 C89.5073242,9.15917969 88.7822266,8.2890625 87.5561523,8.2890625 C86.3344727,8.2890625 85.5961914,9.13720703 85.5961914,10.4072266 L85.5961914,10.8950195 C85.5961914,12.2441406 86.3652344,13.0791016 87.5913086,13.0791016 Z M86.4794922,10.2402344 L86.4794922,10.2270508 C86.4794922,9.54150391 86.9013672,8.99658203 87.5605469,8.99658203 C88.206543,8.99658203 88.6328125,9.53710938 88.6328125,10.2270508 L88.6328125,10.2402344 L86.4794922,10.2402344 Z" id="Soon-on-the" fill="#FFFFFF"></path>
            </g>
        </g>
    </g>
</svg>

<svg width="135" height="40" viewBox="0 0 135 40" xmlns="http://www.w3.org/2000/svg"><title>btn-apple</title><g fill="none" fill-rule="evenodd" opacity=".4"><path d="M130.197 40H4.729A4.74 4.74 0 0 1 0 35.267V4.726A4.733 4.733 0 0 1 4.729 0h125.468C132.803 0 135 2.12 135 4.726v30.541c0 2.605-2.197 4.733-4.803 4.733z" fill="#A6A6A6"/><path d="M130.198 39.098H4.729a3.835 3.835 0 0 1-3.839-3.83V4.725A3.84 3.84 0 0 1 4.729.89h125.468a3.834 3.834 0 0 1 3.834 3.835l.001 30.543a3.83 3.83 0 0 1-3.834 3.83z" fill="#000"/><path d="M30.128 19.784c-.029-3.223 2.639-4.791 2.761-4.864-1.511-2.203-3.853-2.504-4.676-2.528-1.967-.207-3.875 1.177-4.877 1.177-1.022 0-2.565-1.157-4.228-1.123-2.14.033-4.142 1.272-5.24 3.196-2.266 3.923-.576 9.688 1.595 12.859 1.086 1.553 2.355 3.287 4.016 3.226 1.625-.067 2.232-1.036 4.193-1.036 1.943 0 2.513 1.036 4.207.997 1.744-.028 2.842-1.56 3.89-3.127 1.255-1.78 1.759-3.533 1.779-3.623-.041-.014-3.387-1.291-3.42-5.154zM26.928 10.306c.874-1.093 1.472-2.58 1.306-4.089-1.265.056-2.847.875-3.758 1.944-.806.942-1.526 2.486-1.34 3.938 1.421.106 2.88-.717 3.792-1.793zM53.645 31.504h-2.271l-1.244-3.909h-4.324l-1.185 3.909H42.41l4.284-13.308h2.646l4.305 13.308zm-3.89-5.549L48.63 22.48c-.119-.355-.342-1.191-.671-2.507h-.04a96.75 96.75 0 0 1-.632 2.507l-1.105 3.475h3.573zM64.662 26.588c0 1.632-.441 2.922-1.323 3.869-.79.843-1.771 1.264-2.942 1.264-1.264 0-2.172-.454-2.725-1.362h-.04v5.055H55.5V25.067c0-1.026-.027-2.079-.079-3.159h1.875l.119 1.521h.04c.711-1.146 1.79-1.718 3.238-1.718 1.132 0 2.077.447 2.833 1.342.758.896 1.136 2.074 1.136 3.535zm-2.172.078c0-.934-.21-1.704-.632-2.31-.461-.632-1.08-.948-1.856-.948-.526 0-1.004.176-1.431.523-.428.35-.708.807-.839 1.373-.066.264-.099.48-.099.65v1.6c0 .698.214 1.287.642 1.768.428.481.984.721 1.668.721.803 0 1.428-.31 1.875-.928.448-.619.672-1.435.672-2.449zM75.699 26.588c0 1.632-.441 2.922-1.324 3.869-.789.843-1.77 1.264-2.941 1.264-1.264 0-2.172-.454-2.724-1.362h-.04v5.055h-2.132V25.067c0-1.026-.027-2.079-.079-3.159h1.875l.119 1.521h.04c.71-1.146 1.789-1.718 3.238-1.718 1.131 0 2.076.447 2.834 1.342.755.896 1.134 2.074 1.134 3.535zm-2.172.078c0-.934-.211-1.704-.633-2.31-.461-.632-1.078-.948-1.855-.948a2.22 2.22 0 0 0-1.432.523c-.428.35-.707.807-.838 1.373-.065.264-.099.48-.099.65v1.6c0 .698.214 1.287.64 1.768.428.48.984.721 1.67.721.803 0 1.428-.31 1.875-.928.448-.619.672-1.435.672-2.449zM88.039 27.772c0 1.132-.393 2.053-1.182 2.764-.867.777-2.074 1.165-3.625 1.165-1.432 0-2.58-.276-3.449-.829l.494-1.777c.936.566 1.963.85 3.082.85.803 0 1.428-.182 1.877-.544.447-.362.67-.848.67-1.454 0-.54-.184-.995-.553-1.364-.367-.369-.98-.712-1.836-1.029-2.33-.869-3.494-2.142-3.494-3.816 0-1.094.408-1.991 1.225-2.689.814-.699 1.9-1.048 3.258-1.048 1.211 0 2.217.211 3.02.632l-.533 1.738c-.75-.408-1.598-.612-2.547-.612-.75 0-1.336.185-1.756.553a1.58 1.58 0 0 0-.533 1.205c0 .526.203.961.611 1.303.355.316 1 .658 1.936 1.027 1.145.461 1.986 1 2.527 1.618.539.616.808 1.387.808 2.307zM95.088 23.508h-2.35v4.659c0 1.185.414 1.777 1.244 1.777.381 0 .697-.033.947-.099l.059 1.619c-.42.157-.973.236-1.658.236-.842 0-1.5-.257-1.975-.77-.473-.514-.711-1.376-.711-2.587v-4.837h-1.4v-1.6h1.4v-1.757l2.094-.632v2.389h2.35v1.602zM105.691 26.627c0 1.475-.422 2.686-1.264 3.633-.883.975-2.055 1.461-3.516 1.461-1.408 0-2.529-.467-3.365-1.401-.836-.934-1.254-2.113-1.254-3.534 0-1.487.43-2.705 1.293-3.652.861-.948 2.023-1.422 3.484-1.422 1.408 0 2.541.467 3.396 1.402.818.907 1.226 2.078 1.226 3.513zm-2.212.069c0-.885-.189-1.644-.572-2.277-.447-.766-1.086-1.148-1.914-1.148-.857 0-1.508.383-1.955 1.148-.383.634-.572 1.405-.572 2.317 0 .885.189 1.644.572 2.276.461.766 1.105 1.148 1.936 1.148.814 0 1.453-.39 1.914-1.168.393-.645.591-1.412.591-2.296zM112.621 23.783a3.702 3.702 0 0 0-.672-.059c-.75 0-1.33.283-1.738.85-.355.5-.533 1.132-.533 1.895v5.035h-2.131l.02-6.574c0-1.106-.027-2.113-.08-3.021h1.857l.078 1.836h.059c.225-.631.58-1.139 1.066-1.52a2.578 2.578 0 0 1 1.541-.514c.197 0 .375.014.533.039v2.033zM122.156 26.252a5 5 0 0 1-.078.967h-6.396c.025.948.334 1.673.928 2.173.539.447 1.236.671 2.092.671.947 0 1.811-.151 2.588-.454l.334 1.48c-.908.396-1.98.593-3.217.593-1.488 0-2.656-.438-3.506-1.313-.848-.875-1.273-2.05-1.273-3.524 0-1.447.395-2.652 1.186-3.613.828-1.026 1.947-1.539 3.355-1.539 1.383 0 2.43.513 3.141 1.539.563.815.846 1.823.846 3.02zm-2.033-.553c.014-.632-.125-1.178-.414-1.639-.369-.593-.936-.889-1.699-.889-.697 0-1.264.289-1.697.869-.355.461-.566 1.014-.631 1.658h4.441v.001zM43.264 11.352c.022.8.58 1.771 2.215 1.771 1.313 0 2.285-.646 2.285-1.824 0-.997-.668-1.424-1.578-1.652l-1.002-.255c-.567-.136-.84-.43-.84-.835 0-.593.497-.932 1.21-.932.799 0 1.212.436 1.26.972h.875c-.022-1.139-1.015-1.732-2.123-1.732-1.129 0-2.13.62-2.13 1.758 0 .958.693 1.415 1.44 1.6l1.011.255c.655.162.963.421.963.896 0 .602-.493.984-1.292.984-.88 0-1.35-.461-1.402-1.006h-.892zm7.378-3.063c-1.323 0-2.039.94-2.039 2.193v.387c0 1.287.716 2.21 2.04 2.21 1.317 0 2.025-.923 2.025-2.21v-.391c0-1.253-.712-2.189-2.026-2.189zm-.004.73c.751 0 1.138.593 1.138 1.48v.356c0 .88-.382 1.486-1.138 1.486-.752 0-1.143-.611-1.143-1.486V10.5c0-.884.391-1.481 1.143-1.481zm4.979-.73c-1.323 0-2.04.94-2.04 2.193v.387c0 1.287.717 2.21 2.04 2.21 1.318 0 2.026-.923 2.026-2.21v-.391c0-1.253-.712-2.189-2.026-2.189zm-.005.73c.752 0 1.138.593 1.138 1.48v.356c0 .88-.382 1.486-1.138 1.486-.751 0-1.142-.611-1.142-1.486V10.5c0-.884.39-1.481 1.142-1.481zM58.742 13h.883v-2.786c0-.62.338-1.138 1.067-1.138.616 0 1.06.36 1.06 1.116V13h.883v-2.975c0-1.13-.69-1.732-1.64-1.732-.76 0-1.186.405-1.349.708h-.03v-.633h-.875V13zm8.753-4.71c-1.323 0-2.039.94-2.039 2.192v.387c0 1.287.716 2.21 2.04 2.21 1.317 0 2.025-.923 2.025-2.21v-.391c0-1.253-.712-2.189-2.026-2.189zm-.004.729c.751 0 1.138.593 1.138 1.48v.356c0 .88-.382 1.486-1.138 1.486-.752 0-1.143-.611-1.143-1.486V10.5c0-.884.391-1.481 1.143-1.481zM70.62 13h.883v-2.786c0-.62.338-1.138 1.068-1.138.615 0 1.059.36 1.059 1.116V13h.883v-2.975c0-1.13-.69-1.732-1.639-1.732-.76 0-1.186.405-1.35.708h-.03v-.633h-.874V13zm7.215-4.632h-.641v.72h.633V11.7c0 .923.277 1.336 1.393 1.336.18 0 .356-.017.43-.03v-.69a2.89 2.89 0 0 1-.21.008c-.541 0-.73-.14-.73-.668V9.09h.91v-.72h-.91V7.225h-.875v1.142zM80.67 13h.888v-2.786c0-.62.334-1.138 1.067-1.138.62 0 1.06.36 1.06 1.116V13h.887v-2.975c0-1.13-.694-1.732-1.643-1.732-.756 0-1.178.405-1.34.708h-.031V6.685h-.888V13zm6.921.08c1.099 0 1.705-.63 1.86-1.385h-.858c-.132.413-.474.668-.984.668-.699 0-1.13-.554-1.13-1.376v-.096h3.028v-.44c0-1.292-.725-2.162-1.95-2.162-1.223 0-1.96.848-1.96 2.118v.488c0 1.35.768 2.184 1.994 2.184zm-1.112-2.84v-.013c0-.685.422-1.23 1.082-1.23.646 0 1.072.54 1.072 1.23v.013h-2.154z" fill="#FFF"/></g></svg>
